X:1
T:Grafton Street, 87.87
T:P. K. Moran, 1828
T:Grafton Street, 87.87
T:Public Domain
C:P. K. Moran, 1828
Z:Public Domain
%%score ( 1 2 ) ( 3 4 )
L:1/8
M:2/4
K:C
V:1 treble 
V:2 treble 
V:3 bass 
V:4 bass 
V:1
 [EA]2 [EA]2 | [EA]2 [E^G]2 | [EA]2 [^GB][Ac] | [Ac]2 [^GB]2 | AE [EA]2 | [FA]2 AB | EA A^G | A4 | %8
 [Ac]2 [Ac]2 | [^GB]2 [GB]2 | A2 AB | [EA]2 [E^G]2 | [EA]2 [EA]2 | [FA]2 AB | EA A^G | A4 |] %16
V:2
 x4 | x4 | x4 | x4 | A2 x2 | x2 F2 | c2 B2 | A4 | x4 | x4 | A2 F2 | x4 | x4 | x2 F2 | c2 B2 | A4 |] %16
V:3
 [A,C]2 [A,C]2 | [E,C]2 E,D, | A,C [B,,D][A,,E] | [E,E]2 E,C, | EC [A,,C]2 | [D,D]2 [D,D]2 | %6
 CE E>D | [A,,C]4 | [A,E]2 [A,E]2 | [E,E]2 ED | [F,C]2 [D,D]2 | [E,C]2 E,D, | [C,A,]2 [A,,C]2 | %13
 [D,D]2 [D,D]2 | CE E>D | [A,,C]4 |] %16
V:4
 x4 | x2 B,2 | C,2 x2 | x2 E2 | C,2 x2 | x4 | E,2 E,2 | x4 | x4 | x2 E,2 | x4 | x2 B,2 | x4 | x4 | %14
 E,2 E,2 | x4 |] %16

